storage/app/icons/phosphoricons/duotone/plugs-connected-duotone.svg

<svg xmlns="http://www.w3.org/2000/svg" fill="currentColor" viewBox="0 0 256 256"><path d="m185 127-58 58a24 24 0 0 1-33.94 0L71 162.91A24 24 0 0 1 71 129l58-58a24 24 0 0 1 33.94 0L185 93.09a24 24 0 0 1 0 33.91" opacity=".2"/><path d="M237.66 18.34a8 8 0 0 0-11.32 0l-52.4 52.41-5.37-5.38a32.05 32.05 0 0 0-45.26 0L100 88.69l-6.34-6.35a8 8 0 0 0-11.32 11.32l6.35 6.34-23.32 23.31a32 32 0 0 0 0 45.26l5.38 5.37-52.41 52.4a8 8 0 0 0 11.32 11.32l52.4-52.41 5.37 5.38a32.06 32.06 0 0 0 45.26 0L156 167.31l6.34 6.35a8 8 0 0 0 11.32-11.32l-6.35-6.34 23.32-23.31a32 32 0 0 0 0-45.26l-5.38-5.37 52.41-52.4a8 8 0 0 0 0-11.32m-116.29 161a16 16 0 0 1-22.62 0l-22.06-22.09a16 16 0 0 1 0-22.62L100 111.31 144.69 156Zm57.94-57.94L156 144.69 111.31 100l23.32-23.31a16 16 0 0 1 22.62 0l22.06 22a16 16 0 0 1 0 22.63ZM88.57 35a8 8 0 0 1 14.86-6l8 20a8 8 0 0 1-14.86 6Zm-64 58A8 8 0 0 1 35 88.57l20 8a8 8 0 0 1-6 14.86l-20-8A8 8 0 0 1 24.57 93m206.86 70a8 8 0 0 1-10.4 4.46l-20-8a8 8 0 1 1 5.97-14.89l20 8a8 8 0 0 1 4.43 10.43m-64 58.06a8 8 0 0 1-14.86 5.94l-8-20a8 8 0 0 1 14.86-6Z"/></svg>

<svg xmlns="http://www.w3.org/2000/svg" viewBox="0 0 256 256" fill="currentColor"><path d="M185,127,127,185a24,24,0,0,1-33.94,0L71,162.91A24,24,0,0,1,71,129L129,71a24,24,0,0,1,33.94,0L185,93.09A24,24,0,0,1,185,127Z" opacity="0.2"/><path d="M237.66,18.34a8,8,0,0,0-11.32,0l-52.4,52.41-5.37-5.38a32.05,32.05,0,0,0-45.26,0L100,88.69l-6.34-6.35A8,8,0,0,0,82.34,93.66L88.69,100,65.37,123.31a32,32,0,0,0,0,45.26l5.38,5.37-52.41,52.4a8,8,0,0,0,11.32,11.32l52.4-52.41,5.37,5.38a32.06,32.06,0,0,0,45.26,0L156,167.31l6.34,6.35a8,8,0,0,0,11.32-11.32L167.31,156l23.32-23.31a32,32,0,0,0,0-45.26l-5.38-5.37,52.41-52.4A8,8,0,0,0,237.66,18.34Zm-116.29,161a16,16,0,0,1-22.62,0L76.69,157.25a16,16,0,0,1,0-22.62L100,111.31,144.69,156Zm57.94-57.94h0L156,144.69,111.31,100l23.32-23.31a16,16,0,0,1,22.62,0l22.06,22a16,16,0,0,1,0,22.63ZM88.57,35A8,8,0,0,1,103.43,29l8,20A8,8,0,0,1,96.57,55ZM24.57,93A8,8,0,0,1,35,88.57l20,8A8,8,0,0,1,49,111.43l-20-8A8,8,0,0,1,24.57,93ZM231.43,163a8,8,0,0,1-10.4,4.46l-20-8A8,8,0,1,1,207,144.57l20,8A8,8,0,0,1,231.43,163Zm-64,58.06A8,8,0,0,1,152.57,227l-8-20A8,8,0,0,1,159.43,201Z"/></svg>
